svg/075-black.svg

<svg height="288pt" stroke-linejoin="round" viewBox="0 0 432 288" width="432pt" xmlns="http://www.w3.org/2000/svg"><g stroke-linejoin="round"><path d="m0 288h432v-288h-432z" fill="none"/><path d="m122.563636 142.332151c0 19.358202 5.742349 38.288189 16.49719 54.383945 10.754841 16.095757 26.046366 28.645187 43.931012 36.053251 17.884647 7.408063 37.571176 9.347017 56.557415 5.570419 18.98624-3.776598 36.432215-13.101666 50.120531-26.789982s23.013384-31.134291 26.789982-50.120531c3.776598-18.986239 1.837644-38.672768-5.570419-56.557415-7.408064-17.884646-19.957494-33.176171-36.053251-43.931012-16.095756-10.754841-35.025743-16.49719-54.383945-16.49719v97.888515z"/></g></svg>

<?xml version="1.0" encoding="utf-8" standalone="no"?>
<!DOCTYPE svg PUBLIC "-//W3C//DTD SVG 1.1//EN"
  "http://www.w3.org/Graphics/SVG/1.1/DTD/svg11.dtd">
<!-- Created with matplotlib (http://matplotlib.org/) -->
<svg height="288pt" version="1.1" viewBox="0 0 432 288" width="432pt" xmlns="http://www.w3.org/2000/svg" xmlns:xlink="http://www.w3.org/1999/xlink">
 <defs>
  <style type="text/css">
*{stroke-linecap:butt;stroke-linejoin:round;}
  </style>
 </defs>
 <g id="figure_1">
  <g id="patch_1">
   <path d="M 0 288 
L 432 288 
L 432 0 
L 0 0 
z
" style="fill:none;"/>
  </g>
  <g id="axes_1">
   <g id="patch_2">
    <path d="M 122.563636 142.332151 
C 122.563636 161.690353 128.305985 180.62034 139.060826 196.716096 
C 149.815667 212.811853 165.107192 225.361283 182.991838 232.769347 
C 200.876485 240.17741 220.563014 242.116364 239.549253 238.339766 
C 258.535493 234.563168 275.981468 225.2381 289.669784 211.549784 
C 303.3581 197.861468 312.683168 180.415493 316.459766 161.429253 
C 320.236364 142.443014 318.29741 122.756485 310.889347 104.871838 
C 303.481283 86.987192 290.931853 71.695667 274.836096 60.940826 
C 258.74034 50.185985 239.810353 44.443636 220.452151 44.443636 
L 220.452151 142.332151 
L 122.563636 142.332151 
z
"/>
   </g>
   <g id="patch_3">
    <path d="M 220.452151 44.443636 
C 194.50046 44.443636 169.585136 54.763902 151.234519 73.114519 
C 132.883902 91.465136 122.563636 116.38046 122.563636 142.332151 
L 127.458062 142.332151 
C 127.458062 117.678044 137.262314 94.008486 154.6954 76.5754 
C 172.128486 59.142314 195.798044 49.338062 220.452151 49.338062 
z
"/>
   </g>
   <g id="matplotlib.axis_1"/>
   <g id="matplotlib.axis_2"/>
  </g>
 </g>
</svg>
